assets/icons/24px/stroke/sprout-24px.svg

<svg width="24" height="24" viewBox="0 0 24 24" fill="none" xmlns="http://www.w3.org/2000/svg">
<path fill-rule="evenodd" clip-rule="evenodd" d="M11.9786 11.9142C12.5309 11.9142 12.9786 12.362 12.9786 12.9142V18.6218C12.9786 19.1741 12.5309 19.6218 11.9786 19.6218C11.4263 19.6218 10.9786 19.1741 10.9786 18.6218V12.9142C10.9786 12.362 11.4263 11.9142 11.9786 11.9142Z" fill="white"/>
<path fill-rule="evenodd" clip-rule="evenodd" d="M20.0643 21C20.689 20.2191 20.6886 20.2188 20.6881 20.2184L20.6871 20.2176L20.685 20.2159L20.6801 20.212L20.6675 20.2023C20.6579 20.1949 20.6459 20.1858 20.6314 20.1751C20.6025 20.1536 20.5637 20.1258 20.5149 20.0924C20.4173 20.0258 20.2795 19.9372 20.0997 19.8345C19.7398 19.6289 19.2127 19.3668 18.5035 19.1089C17.0832 18.5925 14.9459 18.0975 11.9786 18.0975C9.01474 18.0975 7.08763 18.5915 5.86486 19.1349C5.25353 19.4066 4.82304 19.6887 4.53154 19.9219C4.3861 20.0382 4.27633 20.1416 4.19672 20.2241C4.15695 20.2654 4.1248 20.3013 4.09958 20.331C4.08698 20.3458 4.07611 20.3591 4.06689 20.3706L4.05429 20.3866L4.0489 20.3937L4.04643 20.3969L4.04525 20.3985C4.04467 20.3992 4.0441 20.4 4.84402 20.9999L4.0441 20.4C3.71273 20.8418 3.80228 21.4686 4.2441 21.8C4.6779 22.1253 5.29001 22.0449 5.62575 21.6237C5.62791 21.6214 5.63144 21.6175 5.63641 21.6124C5.65712 21.5909 5.70342 21.5456 5.78093 21.4836C5.93534 21.3601 6.21829 21.1665 6.67714 20.9625C7.59471 20.5547 9.23483 20.0975 11.9786 20.0975C14.7188 20.0975 16.6244 20.5537 17.82 20.9885C18.4189 21.2063 18.843 21.4199 19.1074 21.571C19.2397 21.6466 19.3323 21.7067 19.387 21.7441C19.4144 21.7627 19.4323 21.7758 19.441 21.7822C19.4435 21.7841 19.4453 21.7854 19.4463 21.7861C19.4463 21.7861 19.4463 21.7861 19.4463 21.7861C19.4469 21.7867 19.4472 21.7869 19.4471 21.7868L19.4451 21.7852L19.4428 21.7834L19.4413 21.7822M19.4405 21.7816C19.4405 21.7816 19.4405 21.7816 19.4405 21.7816L19.4405 21.7816C19.4405 21.7816 19.4405 21.7816 19.4405 21.7816Z" fill="white"/>
<path fill-rule="evenodd" clip-rule="evenodd" d="M11.9269 11.0223C11.927 11.0224 11.926 11.0233 11.9238 11.0247C11.9257 11.023 11.9268 11.0222 11.9269 11.0223ZM11.9215 11.0262C11.9028 11.0373 11.8323 11.0684 11.656 11.0635C11.4039 11.0564 11.0355 10.9739 10.5634 10.7716C9.62469 10.3693 8.46818 9.57616 7.35547 8.46344C6.24275 7.35073 5.44964 6.19422 5.04732 5.25549C4.84499 4.78337 4.76247 4.41499 4.75544 4.16287C4.75052 3.9866 4.78161 3.91612 4.79274 3.89744C4.81142 3.88631 4.8819 3.85522 5.05818 3.86013C5.31029 3.86717 5.67868 3.94969 6.15079 4.15202C7.08953 4.55433 8.24603 5.34745 9.35875 6.46017C10.4715 7.57288 11.2646 8.72939 11.6669 9.66812C11.8692 10.1402 11.9517 10.5086 11.9588 10.7607C11.9637 10.937 11.9326 11.0075 11.9215 11.0262ZM4.7966 3.89202C4.79667 3.8921 4.79594 3.89321 4.79417 3.89515C4.79564 3.89292 4.79652 3.89195 4.7966 3.89202ZM4.79045 3.89887C4.78852 3.90064 4.7874 3.90137 4.78733 3.90129C4.78725 3.90122 4.78822 3.90033 4.79045 3.89887ZM11.92 11.0285C11.9186 11.0307 11.9177 11.0317 11.9176 11.0316C11.9175 11.0315 11.9183 11.0304 11.92 11.0285ZM9.77559 12.6099C8.54977 12.0845 7.18783 11.1242 5.94126 9.87766C4.69468 8.63108 3.73438 7.26914 3.20903 6.04332C2.94753 5.43316 2.77265 4.80774 2.75622 4.21866C2.7397 3.62667 2.88513 2.97584 3.37814 2.48283C3.87115 1.98983 4.52198 1.84439 5.11396 1.86091C5.70304 1.87735 6.32846 2.05223 6.93863 2.31373C8.16445 2.83908 9.52639 3.79938 10.773 5.04595C12.0195 6.29252 12.9798 7.65446 13.5052 8.88028C13.7667 9.49045 13.9416 10.1159 13.958 10.705C13.9745 11.2969 13.8291 11.9478 13.3361 12.4408C12.8431 12.9338 12.1922 13.0792 11.6003 13.0627C11.0112 13.0463 10.3858 12.8714 9.77559 12.6099Z" fill="white"/>
<path fill-rule="evenodd" clip-rule="evenodd" d="M13.7626 6.5857C13.3312 7.01702 12.9452 7.45773 12.6104 7.89244C12.2735 8.33001 11.6456 8.41157 11.208 8.0746C10.7704 7.73763 10.6889 7.10974 11.0259 6.67217C11.4147 6.16718 11.858 5.66188 12.3484 5.17148C13.5949 3.92491 14.9569 2.96461 16.1827 2.43926C16.7928 2.17776 17.4183 2.00288 18.0073 1.98645C18.5993 1.96993 19.2502 2.11536 19.7432 2.60837C20.2362 3.10138 20.3816 3.75221 20.3651 4.34419C20.3487 4.93327 20.1738 5.55869 19.9123 6.16886C19.3869 7.39468 18.4266 8.75662 17.1801 10.0032C15.575 11.6082 13.7375 12.7774 12.2324 13.0991C11.6923 13.2146 11.1609 12.8704 11.0454 12.3303C10.93 11.7902 11.2742 11.2588 11.8143 11.1433C12.7889 10.935 14.2963 10.0585 15.7658 8.58898C16.8786 7.47626 17.6717 6.31975 18.074 5.38102C18.2763 4.90891 18.3588 4.54052 18.3659 4.2884C18.3708 4.11213 18.3397 4.04165 18.3286 4.02297C18.3099 4.01184 18.2394 3.98075 18.0631 3.98567C17.811 3.9927 17.4426 4.07522 16.9705 4.27755C16.0318 4.67987 14.8753 5.47298 13.7626 6.5857ZM18.334 4.02683C18.3339 4.0269 18.3328 4.02617 18.3309 4.0244C18.3331 4.02587 18.3341 4.02675 18.334 4.02683ZM18.3271 4.02068C18.3254 4.01874 18.3246 4.01763 18.3247 4.01756C18.3248 4.01748 18.3257 4.01845 18.3271 4.02068Z" fill="white"/>
</svg>

<svg width="24" height="24" fill="none" xmlns="http://www.w3.org/2000/svg"><path fill-rule="evenodd" clip-rule="evenodd" d="M11.979 11.914a1 1 0 0 1 1 1v5.708a1 1 0 1 1-2 0v-5.708a1 1 0 0 1 1-1z" fill="#fff"/><path fill-rule="evenodd" clip-rule="evenodd" d="M20.064 21c.625-.78.625-.781.624-.782l-.003-.002-.005-.004-.012-.01a2.155 2.155 0 0 0-.153-.11 6.153 6.153 0 0 0-.415-.258c-.36-.205-.887-.467-1.597-.725-1.42-.517-3.557-1.012-6.524-1.012-2.964 0-4.891.494-6.114 1.038a6.073 6.073 0 0 0-1.333.787 3.52 3.52 0 0 0-.432.409 1.73 1.73 0 0 0-.033.04l-.013.016-.005.007-.003.003v.002c-.001 0-.002.001.798.6l-.8-.599a1 1 0 0 0 1.582 1.224l.01-.012c.021-.021.067-.066.145-.128.154-.124.437-.318.896-.522.918-.407 2.558-.864 5.302-.864 2.74 0 4.645.456 5.841.89a8.377 8.377 0 0 1 1.287.583 4.143 4.143 0 0 1 .34.215h-.002l-.002-.003h-.002m0-.001zm-7.514-10.76l-.003.003a.012.012 0 0 1 .003-.003zm-.005.004c-.02.011-.09.042-.266.037-.252-.007-.62-.09-1.093-.291-.938-.403-2.095-1.196-3.208-2.309C6.243 7.351 5.45 6.194 5.047 5.255c-.202-.472-.285-.84-.292-1.092-.004-.176.027-.247.038-.266.018-.01.089-.042.265-.037.252.007.62.09 1.093.292.939.402 2.095 1.195 3.208 2.308 1.113 1.113 1.906 2.27 2.308 3.208.202.472.285.84.292 1.093.005.176-.026.247-.037.265zM4.796 3.892l-.003.003a.013.013 0 0 1 .003-.003zm-.007.007a.012.012 0 0 1-.003.002L4.79 3.9zm7.13 7.13l-.002.003.002-.004zm-2.144 1.58c-1.226-.524-2.588-1.485-3.835-2.731C4.695 8.63 3.734 7.269 3.21 6.043c-.261-.61-.436-1.235-.453-1.824-.016-.592.13-1.243.622-1.736.493-.493 1.144-.639 1.736-.622.589.016 1.214.191 1.825.453 1.225.525 2.587 1.485 3.834 2.732 1.247 1.247 2.207 2.608 2.732 3.834.262.61.437 1.236.453 1.825.017.592-.129 1.243-.622 1.736-.493.493-1.144.638-1.736.622-.589-.017-1.214-.192-1.824-.453z" fill="#fff"/><path fill-rule="evenodd" clip-rule="evenodd" d="M13.763 6.586c-.432.431-.818.872-1.153 1.306a1 1 0 1 1-1.584-1.22 15.54 15.54 0 0 1 1.322-1.5c1.247-1.247 2.609-2.207 3.835-2.733.61-.261 1.235-.436 1.824-.453.592-.016 1.243.13 1.736.622.493.493.639 1.144.622 1.736-.016.59-.191 1.215-.453 1.825-.525 1.226-1.485 2.588-2.732 3.834-1.605 1.605-3.442 2.774-4.948 3.096a1 1 0 1 1-.418-1.956c.975-.208 2.482-1.085 3.952-2.554 1.113-1.113 1.906-2.27 2.308-3.208.202-.472.285-.84.292-1.093.005-.176-.026-.246-.037-.265-.02-.011-.09-.042-.266-.037-.252.007-.62.09-1.092.292-.94.402-2.096 1.195-3.208 2.308zm4.571-2.56l-.003-.002a.012.012 0 0 1 .003.003zm-.007-.005a.014.014 0 0 1-.002-.003l.002.003z" fill="#fff"/></svg>
